icons/arrow/arrow-right-2-line-to.svg

<svg width="14" height="14" viewBox="0 0 14 14" fill="none"
    xmlns="http://www.w3.org/2000/svg">
    <path d="M6.64648 2.64651C6.84175 2.45125 7.15825 2.45125 7.35352 2.64651L9.70703 5.00003L7.70703 7.00003L9.70703 9.00003L7.35352 11.3535C7.15826 11.5488 6.84174 11.5488 6.64648 11.3535C6.45123 11.1583 6.45124 10.8418 6.64648 10.6465L7.79297 9.50003H3C2.72387 9.50003 2.50002 9.27616 2.5 9.00003C2.5 8.72389 2.72386 8.50003 3 8.50003H7.79297L6.64648 7.35355C6.6221 7.32916 6.60033 7.30312 6.58203 7.27542C6.54694 7.22229 6.52337 7.16381 6.51074 7.10355C6.50871 7.09389 6.50829 7.08399 6.50684 7.07425C6.50379 7.05378 6.50148 7.03337 6.50098 7.01273C6.50072 7.00262 6.50062 6.99255 6.50098 6.98245C6.50165 6.96382 6.50312 6.94527 6.50586 6.92679C6.50789 6.91302 6.51049 6.89936 6.51367 6.88577C6.51826 6.86625 6.52429 6.84712 6.53125 6.82816C6.53397 6.82073 6.53598 6.81301 6.53906 6.80569C6.547 6.78687 6.55704 6.76894 6.56738 6.75101C6.58883 6.7138 6.61467 6.67833 6.64648 6.64651L7.79297 5.50003H3C2.72387 5.50003 2.50002 5.27616 2.5 5.00003C2.5 4.72389 2.72386 4.50003 3 4.50003H7.79297L6.64648 3.35355L6.58203 3.27542C6.45387 3.08135 6.47564 2.81738 6.64648 2.64651Z" fill="red"/>
    <path d="M11 3V10.9926" stroke="green" stroke-linecap="round" stroke-linejoin="round"/>
</svg>

<svg xmlns="http://www.w3.org/2000/svg" width="14" height="14" fill="none" viewBox="0 0 14 14"><path fill="red" d="M6.646 2.647a.5.5 0 0 1 .708 0L9.707 5l-2 2 2 2-2.353 2.354a.5.5 0 1 1-.708-.707L7.793 9.5H3a.5.5 0 0 1 0-1h4.793L6.646 7.354a.5.5 0 0 1-.135-.25l-.004-.03a.5.5 0 0 1 .024-.246l.008-.022.028-.055a.5.5 0 0 1 .08-.104L7.792 5.5H3a.5.5 0 0 1 0-1h4.793L6.646 3.354l-.064-.079a.5.5 0 0 1 .064-.628"/><path stroke="green" stroke-linecap="round" stroke-linejoin="round" d="M11 3v7.993"/></svg>
